X:41
T:Nelly
S:Brendan Begley
D:Brendan Begley, We Won't Go Home 'til Morning, 1997
Z: id:ng-other-41 1st time through transcribed by Alan Ng alan@alan-ng.nospam (net) 8 August 2021
R:Polka
K:AMix
M:2/4
|:ed cA|ed cA|Ac ef|ge d/d/c|ed cA|ed cA|Ac ef|ge d2::
ef ge|ed cA|ef ge|eA d2|ef ge|ed cA|Ac ef|ge d2:|

